svg/Pictogram/pictograms-aem-0014-toothed_belt.svg

<?xml version="1.0" encoding="ISO-8859-1" standalone="yes"?>
<svg height="304.014" width="304.015">
  <metadata>
    <rdf:RDF xmlns:cc="http://web.resource.org/cc/" xmlns:dc="http://purl.org/dc/elements/1.1/" xmlns:rdf="http://www.w3.org/1999/02/22-rdf-syntax-ns#">
      <cc:Work rdf:about="">
        <dc:title></dc:title>
        <dc:description></dc:description>
        <dc:subject>
          <rdf:Bag>
            <rdf:li></rdf:li>
          </rdf:Bag>
        </dc:subject>
        <dc:publisher>
          <cc:Agent rdf:about="http://www.unece.org/trans/danger/publi/ghs/pictograms.html">
            <dc:title>Source: UNECE GHS of Classification and Labeling of Chemicals, Source: AEM Pictorial Database, Source: AEM Pictorial Database, Source: AEM Pictorial Database, Source: AEM Pictorial Database</dc:title>
          </cc:Agent>
        </dc:publisher>
        <dc:creator>
          <cc:Agent>
            <dc:title></dc:title>
          </cc:Agent>
        </dc:creator>
        <dc:rights>
          <cc:Agent>
            <dc:title></dc:title>
          </cc:Agent>
        </dc:rights>
        <dc:date></dc:date>
        <dc:format>image/svg+xml</dc:format>
        <dc:type rdf:resource="http://purl.org/dc/dcmitype/StillImage"/>
        <cc:license rdf:resource="http://en.wikipedia.org/wiki/Public_domain"/>
        <dc:language>en</dc:language>
      </cc:Work>
    </rdf:RDF>
  </metadata>
  <defs><marker id="ArrowEnd" markerHeight="3" markerUnits="strokeWidth" markerWidth="4" orient="auto" refX="0" refY="5" viewBox="0 0 10 10"><path d="M 0 0 L 10 5 L 0 10 z"/></marker><marker id="ArrowStart" markerHeight="3" markerUnits="strokeWidth" markerWidth="4" orient="auto" refX="10" refY="5" viewBox="0 0 10 10"><path d="M 10 0 L 0 5 L 10 10 z"/></marker> </defs>
  <g id="g2958" transform="matrix(1.3532768,0,0,1.3532781,-53.207834,-52.192858)">
    <path d="M 92.0034 212.37L 83.6404 221.12C 81.8624 220.104 66.9054 210.217 66.9054 210.217C 68.4294 207.932 74.5114 201.85 81.8624 205.651C 89.2184 209.456 92.0034 212.37 92.0034 212.37" style="stroke:none; fill-rule:evenodd; fill:#000000"/>
    <path d="M 98.3434 210.217L 83.8904 224.413L 79.8354 224.413C 79.8354 224.413 77.3004 226.694 74.0034 230.498C 70.7064 234.299 70.4564 239.624 74.2574 244.44L 86.1754 232.526L 88.7064 232.272L 98.3434 224.159L 98.3434 210.217" style="stroke:none; fill-rule:evenodd; fill:#000000"/>
    <path d="M 108.167 250.463C 106.14 250.717 99.3544 250.526 98.3434 243.682C 97.3274 236.834 98.0894 227.456 98.0894 227.456L 100.226 226.948L 100.261 206.666L 111.776 206.666L 111.89 228.725C 111.89 228.725 109.562 230.436 108.163 231.26L 108.163 250.463" style="stroke:none; fill-rule:evenodd; fill:#000000"/>
    <path d="M 147.112 190.784C 149.069 188.545 180.8 162.112 184.284 157.991C 187.073 154.698 191.382 153.174 197.214 131.627C 202.534 111.959 213.44 69.7684 216.733 53.5414L 172.878 53.5414C 172.878 53.5414 160.581 119.709 160.073 122.245C 159.565 124.78 159.058 128.077 157.538 129.85C 156.116 131.506 151.327 129.979 146.636 129.217C 141.077 128.315 138.905 128.331 137.382 127.315C 136.03 126.416 134.593 125.288 133.577 124.276C 132.565 123.26 112.284 102.471 110.257 101.202C 107.722 103.487 101.144 112.01 109.003 120.881C 116.862 129.756 123.058 134.666 127.874 139.991L 126.315 144.014C 126.812 145.057 128.886 151.706 128.765 151.549L 130.706 151.991C 131.956 156.053 132.312 158.624 132.05 161.745L 125.733 164.772C 125.644 165.924 125.487 166.92 125.452 167.385L 130.991 171.713C 129.964 175.506 129.116 177.549 127.077 180.823L 119.944 180.389C 119.96 180.592 119.39 181.428 118.847 182.096L 121.23 188.784C 119.179 190.823 117.042 192.6 114.464 194.159L 115.905 197.163L 121.366 197.135L 124.804 191.065L 132.003 191.081L 135.015 197.124L 140.671 197.143L 143.913 190.893L 147.112 190.784" style="stroke:none; fill-rule:evenodd; fill:#000000"/>
    <path d="M 158.921 101.823L 125.749 110.838L 129.405 114.502L 129.897 114.377L 134.901 119.28C 136.019 118.905 136.987 118.62 137.761 118.498L 138.913 111.928L 148.167 109.502L 153.175 114.377L 156.519 113.381L 157.944 106.846L 159.608 106.37L 160.319 101.498L 158.921 101.823" style="stroke:none; fill-rule:evenodd; fill:#000000"/>
    <path d="M 251.39 81.5734L 250.495 77.2604L 211.671 87.7134L 210.335 92.8854L 208.854 99.3584C 209.972 98.9834 210.94 98.6984 212.069 98.4564L 214.409 91.6474L 222.534 89.3704L 227.558 94.3314C 230.694 93.4834 231.663 93.1944 231.132 93.3114L 232.378 86.6824L 240.866 84.2764L 245.976 89.2644L 249.421 88.3154L 251.39 81.5734" style="stroke:none; fill-rule:evenodd; fill:#000000"/>
    <path d="M 249.421 198.916L 248.753 198.889L 244.726 192.92C 243.573 192.983 242.565 192.956 241.386 192.885L 237.823 198.916L 228.8 198.905L 225.593 192.92C 224.437 192.983 223.429 192.956 222.253 192.885L 218.73 198.862L 210.261 198.889L 206.237 192.92C 205.081 192.983 204.073 192.956 202.894 192.885L 199.331 198.916L 190.308 198.909L 187.101 192.924C 185.944 192.983 184.937 192.956 183.761 192.885L 180.237 198.866L 170.628 198.831L 167.612 192.803C 167.526 192.983 165.687 192.956 164.507 192.885L 161.292 198.889L 152.085 198.889L 149.233 192.862L 145.835 192.885L 142.272 198.916L 133.323 198.909L 130.218 192.862L 126.772 192.885L 123.124 198.944L 113.983 198.889L 111.026 192.924C 109.87 192.983 107.437 193.077 107.331 193.006L 104.124 198.983L 95.1444 198.983L 95.1324 198.913C 95.0734 198.916 95.0154 198.92 94.9564 198.924L 91.9294 192.604C 90.7724 192.514 89.7764 192.358 88.6204 192.135L 84.2884 197.674C 81.4994 196.92 79.0264 195.909 76.3864 194.456L 76.8194 187.323C 76.1084 186.834 75.2724 186.26 74.6044 185.717L 67.9174 188.1C 65.8784 186.049 64.2184 183.936 62.6594 181.358L 66.6124 175.577C 66.1164 174.534 65.7534 173.592 65.3664 172.475L 58.4174 171.53C 57.6794 168.733 57.3274 166.12 57.2654 163.108L 63.5814 160.077C 63.6714 158.924 63.8274 157.928 64.0504 156.768L 58.5154 152.44C 59.2694 149.651 60.2764 147.174 61.7304 144.538L 68.8664 144.971C 69.3544 144.26 69.9254 143.42 70.4724 142.756L 68.0894 136.069C 70.1364 134.03 72.2534 132.37 74.8314 130.807L 80.6124 134.764C 81.6554 134.264 82.5974 133.905 83.7104 133.518L 84.6284 126.788L 84.5934 126.53L 93.1324 124.206L 98.1514 129.17C 99.2694 128.795 100.237 128.506 101.37 128.268L 102.878 121.698L 105.89 120.874L 102.718 117.12L 82.5264 122.526C 65.2064 127.479 52.6204 143.389 52.6204 162.303C 52.6204 185.174 71.1634 203.713 94.0304 203.713L 249.444 203.651L 249.421 198.916" style="stroke:none; fill-rule:evenodd; fill:#000000"/>
    <path d="M 112.413 140.745L 118.327 138.487C 120.022 140.202 121.456 141.905 122.933 144.327L 119.343 149.643C 119.495 149.877 120.632 152.272 120.726 152.92L 126.909 153.811C 127.522 156.147 127.913 158.338 127.98 161.174L 122.21 163.983C 122.226 164.264 122.015 166.905 121.772 167.514L 126.679 171.377C 126.042 173.706 125.284 175.795 123.925 178.288L 117.526 177.834C 117.397 178.088 115.894 180.268 115.378 180.674L 117.698 186.475C 115.98 188.17 114.28 189.604 111.854 191.081L 106.542 187.491C 106.304 187.647 103.909 188.78 103.261 188.874L 102.37 195.057C 100.034 195.67 97.8474 196.061 95.0114 196.127L 92.2024 190.358C 91.9214 190.374 89.2804 190.163 88.6714 189.92L 84.8084 194.831C 82.4804 194.19 80.3864 193.436 77.8974 192.073L 78.3514 185.674C 78.0974 185.549 75.9174 184.041 75.5114 183.53L 69.7104 185.85C 68.0154 184.131 66.5814 182.432 65.1044 180.006L 68.6944 174.694C 68.5384 174.456 67.4054 172.061 67.3124 171.413L 61.1284 170.526C 60.5154 168.186 60.1244 165.998 60.0584 163.163L 65.8274 160.354C 65.8124 160.073 66.0224 157.432 66.2654 156.823L 61.3544 152.959C 61.9954 150.631 62.7534 148.538 64.1124 146.049L 70.5114 146.502C 70.6404 146.248 72.1444 144.069 72.6554 143.663L 70.3354 137.862C 72.0544 136.166 73.7574 134.733 76.1794 133.256L 81.4954 136.846C 81.7304 136.69 84.1244 135.557 84.7724 135.459L 85.6634 129.276C 87.9994 128.666 90.1904 128.276 93.0264 128.209L 95.8314 133.979C 96.1164 133.963 98.6284 134.174 99.2374 134.416L 103.23 129.506C 105.558 130.147 107.647 130.905 110.136 132.264L 109.687 138.663C 109.94 138.791 112.038 140.233 112.448 140.748M 93.6904 184.413C 105.78 184.413 115.585 174.612 115.585 162.518C 115.585 150.424 105.784 140.624 93.6904 140.624C 81.6014 140.624 71.7964 150.424 71.7964 162.518C 71.7964 174.612 81.6014 184.413 93.6904 184.413" style="stroke:none; fill-rule:evenodd; fill:#000000"/>
    <path d="M 29.6204 265.393L 2.62042 265.393" style="stroke:#000000; stroke-width:0.5; fill:none"/>
    <path d="M 38.6204 274.393L 38.6204 301.393" style="stroke:#000000; stroke-width:0.5; fill:none"/>
    <path d="M 29.6204 38.6204L 2.62042 38.6204" style="stroke:#000000; stroke-width:0.5; fill:none"/>
    <path d="M 38.6204 29.6204L 38.6204 2.62042" style="stroke:#000000; stroke-width:0.5; fill:none"/>
    <path d="M 274.394 38.6204L 301.394 38.6204" style="stroke:#000000; stroke-width:0.5; fill:none"/>
    <path d="M 265.394 29.6204L 265.394 2.62042" style="stroke:#000000; stroke-width:0.5; fill:none"/>
    <path d="M 274.394 265.393L 301.394 265.393" style="stroke:#000000; stroke-width:0.5; fill:none"/>
    <path d="M 265.394 274.393L 265.394 301.393" style="stroke:#000000; stroke-width:0.5; fill:none"/>
  </g>
</svg>

<svg viewBox="0 0 304.01 304.01"><g transform="matrix(1.35328 0 0 1.35328-53.21-52.19)" fill-rule="evenodd"><path d="m92 212.37l-8.363 8.75c-1.778-1.016-16.735-10.903-16.735-10.903 1.524-2.285 7.606-8.367 14.957-4.566 7.356 3.805 10.141 6.719 10.141 6.719"/><path d="m98.34 210.22l-14.453 14.196h-4.055c0 0-2.535 2.281-5.832 6.085-3.297 3.801-3.547 9.126.254 13.942l11.918-11.914 2.531-.254 9.637-8.113v-13.942"/><path d="m108.17 250.46c-2.027.254-8.813.063-9.824-6.781-1.016-6.848-.254-16.226-.254-16.226l2.137-.508.035-20.282h11.515l.114 22.06c0 0-2.328 1.711-3.727 2.535v19.2"/><path d="m147.11 190.78c1.957-2.239 33.688-28.672 37.17-32.793 2.789-3.293 7.098-4.817 12.93-26.364 5.32-19.668 16.226-61.859 19.519-78.09h-43.855c0 0-12.297 66.17-12.805 68.7-.508 2.535-1.015 5.832-2.535 7.605-1.422 1.656-6.211.129-10.902-.633-5.559-.902-7.731-.886-9.254-1.902-1.352-.899-2.789-2.027-3.805-3.039-1.012-1.016-21.293-21.805-23.32-23.07-2.535 2.285-9.113 10.808-1.254 19.679 7.859 8.875 14.06 13.785 18.871 19.11l-1.559 4.02c.497 1.043 2.571 7.692 2.45 7.535l1.941.442c1.25 4.062 1.606 6.633 1.344 9.754l-6.317 3.03c-.089 1.152-.246 2.148-.281 2.613l5.539 4.328c-1.027 3.793-1.875 5.836-3.914 9.11l-7.133-.434c.016.203-.554 1.039-1.097 1.707l2.383 6.688c-2.051 2.039-4.188 3.816-6.766 5.375l1.441 3 5.461-.028 3.438-6.07 7.199.016 3.01 6.04 5.656.019 3.242-6.25 3.199-.109"/><path d="m158.92 101.82l-33.17 9.02 3.656 3.664.492-.125 5 4.903c1.118-.375 2.086-.66 2.86-.782l1.152-6.57 9.254-2.426 5.01 4.875 3.344-.996 1.425-6.535 1.664-.476.711-4.872-1.398.325"/><path d="m251.39 81.57l-.895-4.313-38.824 10.453-1.336 5.172-1.481 6.473c1.118-.375 2.086-.66 3.215-.902l2.34-6.809 8.125-2.277 5.02 4.961c3.136-.848 4.105-1.137 3.574-1.02l1.246-6.629 8.488-2.406 5.11 4.988 3.445-.949 1.969-6.742"/><path d="m249.42 198.92l-.668-.027-4.03-5.969c-1.153.063-2.161.036-3.34-.035l-3.563 6.03-9.02-.011-3.207-5.985c-1.156.063-2.164.036-3.34-.035l-3.523 5.977-8.469.027-4.02-5.969c-1.156.063-2.164.036-3.343-.035l-3.563 6.03-9.02-.007-3.207-5.985c-1.157.059-2.164.032-3.34-.039l-3.524 5.981-9.609-.035-3.02-6.03c-.086.18-1.925.153-3.105.082l-3.215 6h-9.207l-2.852-6.03-3.398.023-3.563 6.03-8.949-.007-3.105-6.05-3.446.023-3.648 6.06-9.141-.055-2.957-5.965c-1.156.059-3.589.153-3.695.082l-3.207 5.977h-8.98l-.012-.07c-.059.003-.117.007-.176.011l-3.03-6.32c-1.157-.09-2.153-.246-3.309-.469l-4.332 5.539c-2.789-.754-5.262-1.765-7.902-3.218l.433-7.133c-.711-.489-1.547-1.063-2.215-1.606l-6.687 2.383c-2.039-2.051-3.699-4.164-5.258-6.742l3.953-5.781c-.496-1.043-.859-1.985-1.246-3.102l-6.949-.945c-.738-2.797-1.09-5.41-1.152-8.422l6.316-3.03c.09-1.153.246-2.149.469-3.309l-5.535-4.328c.754-2.789 1.761-5.266 3.215-7.902l7.136.433c.488-.711 1.059-1.551 1.606-2.215l-2.383-6.687c2.047-2.039 4.164-3.699 6.742-5.262l5.781 3.957c1.043-.5 1.985-.859 3.098-1.246l.918-6.73-.035-.258 8.539-2.324 5.02 4.964c1.118-.375 2.086-.664 3.219-.902l1.508-6.57 3.01-.824-3.172-3.754-20.19 5.406c-17.32 4.953-29.906 20.863-29.906 39.777 0 22.871 18.543 41.41 41.41 41.41l155.41-.062-.023-4.735"/><path d="m112.41 140.75l5.914-2.258c1.695 1.715 3.129 3.418 4.606 5.84l-3.59 5.316c.152.234 1.289 2.629 1.383 3.277l6.183.891c.613 2.336 1 4.527 1.071 7.363l-5.77 2.809c.016.281-.195 2.922-.438 3.531l4.907 3.863c-.637 2.329-1.395 4.418-2.754 6.911l-6.399-.454c-.129.254-1.632 2.434-2.148 2.84l2.32 5.801c-1.718 1.695-3.418 3.129-5.844 4.606l-5.312-3.59c-.238.156-2.633 1.289-3.281 1.383l-.891 6.183c-2.336.613-4.523 1-7.359 1.07l-2.809-5.769c-.281.016-2.922-.195-3.531-.438l-3.863 4.911c-2.328-.641-4.422-1.395-6.911-2.758l.454-6.399c-.254-.125-2.434-1.633-2.84-2.144l-5.801 2.32c-1.695-1.719-3.129-3.418-4.606-5.844l3.59-5.312c-.156-.238-1.289-2.633-1.382-3.281l-6.184-.887c-.613-2.34-1-4.528-1.07-7.363l5.769-2.809c-.015-.281.195-2.922.438-3.531l-4.911-3.864c.641-2.328 1.399-4.421 2.758-6.91l6.399.453c.129-.254 1.633-2.433 2.144-2.839l-2.32-5.801c1.719-1.696 3.422-3.129 5.844-4.606l5.316 3.59c.235-.156 2.629-1.289 3.277-1.387l.891-6.183c2.336-.61 4.527-1 7.363-1.067l2.805 5.77c.285-.016 2.797.195 3.406.437l3.993-4.91c2.328.641 4.417 1.399 6.906 2.758l-.449 6.399c.253.128 2.351 1.57 2.761 2.085m-18.758 43.665c12.09 0 21.895-9.801 21.895-21.895 0-12.09-9.801-21.894-21.895-21.894-12.09 0-21.894 9.8-21.894 21.894 0 12.09 9.805 21.895 21.894 21.895"/></g></svg>
